src/assets/img/liked-videos.svg

<svg
  width="18"
  height="17"
  viewBox="0 0 18 17"
  fill="none"
  xmlns="http://www.w3.org/2000/svg">
  <path
  opacity="0.4"
  fill-rule="evenodd"
  clip-rule="evenodd"
  d="M12.6 0C11.217 0 9.95536 0.530866 9 1.40391C8.04464 0.530866 6.78304 0 5.4 0C2.41766 0 0 2.46848 0 5.51351C0 9.95785 4.48072 14.2534 8.62049 16.7595C8.83009 16.8923 9.17315 16.8905 9.38216 16.7577C13.4946 14.2432 18 9.95763 18 5.51351C18 2.46848 15.5823 0 12.6 0ZM9.00509 14.8252C4.5546 11.8546 1.8 8.38441 1.8 5.51351C1.8 3.48349 3.41177 1.83784 5.4 1.83784C6.29958 1.83784 7.14325 2.17359 7.79955 2.77335L8.66561 3.56478C8.8528 3.73585 9.14971 3.73355 9.33439 3.56478L10.2004 2.77335C10.8567 2.17359 11.7004 1.83784 12.6 1.83784C14.5882 1.83784 16.2 3.48349 16.2 5.51351C16.2 8.45823 13.4557 11.8546 9.00509 14.8252Z"
  fill="white"/>
</svg>

<svg
  width="18"
  height="17"
  fill="none"
  xmlns="http://www.w3.org/2000/svg">
  <path
  opacity=".4"
  fill-rule="evenodd"
  clip-rule="evenodd"
  d="M12.6 0C11.217 0 9.955.53 9 1.404A5.318 5.318 0 0 0 5.4 0C2.418 0 0 2.468 0 5.514c0 4.444 4.48 8.74 8.62 11.245.21.133.553.131.762-.001C13.495 14.243 18 9.958 18 5.514 18 2.468 15.582 0 12.6 0ZM9.005 14.825C4.555 11.855 1.8 8.385 1.8 5.514c0-2.03 1.612-3.676 3.6-3.676.9 0 1.743.336 2.4.935l.866.792a.502.502 0 0 0 .668 0l.866-.792c.657-.6 1.5-.935 2.4-.935 1.988 0 3.6 1.645 3.6 3.676 0 2.944-2.744 6.34-7.195 9.311Z" fill="#fff"/>
</svg>
